X:1
T:Title
%%score { ( 1 3 ) | ( 2 4 ) }
L:1/8
M:4/4
K:F
V:1 treble nm="Grand Piano"
V:3 treble 
V:2 bass 
V:4 bass 
V:1
 z4 z2[Q:1/4=110] F2 | z4 .A2 .B2 | [DF]6 [DB]2 | A3 A G2 A2 |[M:3/4] [DB]6 |[M:1/4] [F,F]2 | %6
[M:4/4] z4 .A2 .B2 | [DF]6 [Fd]2 | [Fc]3 [CFA] [B,EG]2 [B,EA]2 |[M:3/4] [A,F]6 |[M:1/4] F2 | %11
[M:4/4] c6 z2 | B6 z2 | [F_e]2 [Fd]2 [Gc]2 [CGB]2 | [CFA]2 [B,EG]2 [A,F]2 [A,F]2 | %15
 [B,FB]2 [B,FB]2 c2 F2 |[M:9/8] d2 d- d [G_e]2- [Ge] [Ge]2 |[M:4/4] d2 d2 c2 c2 |[M:3/4] [DB]6 |] %19
V:2
 z4 z2 F,2 | [B,,F,]3 [B,,F,] [B,,F,]2 .[B,,G,]2 | [B,,B,]6 [B,,F,]2 | %3
 [F,_E]3 [F,E] [F,E]2 [F,E]2 |[M:3/4] [B,,F,]6 |[M:1/4] z2 | %6
[M:4/4] [B,,F,]3 [F,D] [B,,F,]2 .[B,,G,]2 | [B,,B,]6 [B,,B,]2 | [C,A,]3 C, C,2 C,2 |[M:3/4] F,6 | %10
[M:1/4] F,2 |[M:4/4] .[F,A,_E]2 .[F,A,]2 .[F,A,]2 [F,A,E]2 | %12
 .[B,,F,]2 .[B,,F,]2 .[B,,F,]2 [D,B,]2 | [C,A,]2 [D,B,]2 B,C =E,2 | F,2 C,2 F,2 _E,2 | %15
 D,2 D,2 [F,A,F]2 [F,A,]2 | %16
[M:9/8][K:treble] [B,F]2 [B,_A]- [B,A][K:bass] [_E,B,]2- [E,B,] [E,B,]2 | %17
[M:4/4] [F,B,F]2 [F,B,F]2 [F,A,_E]2 [F,A,E]2 |[M:3/4] [B,,F,]6 |] %19
V:3
 x8 | [DB]3 [DB] _E-[Ec]E-[B,EG] | x8 | x8 |[M:3/4] x6 |[M:1/4] x2 | %6
[M:4/4] [DB]3 B _E-[Ec]E-[B,EG] | x8 | x8 |[M:3/4] x6 |[M:1/4] x2 |[M:4/4] z2 ._E2 .E2 dc | %12
 .D2 .D2 .D2 [FB]2 | x8 | x8 | x8 |[M:9/8] x9 |[M:4/4] x8 |[M:3/4] x6 |] %19
V:4
 x8 | x8 | x8 | x8 |[M:3/4] x6 |[M:1/4] x2 |[M:4/4] x8 | x8 | x8 |[M:3/4] x6 |[M:1/4] x2 | %11
[M:4/4] x8 | x8 | z4 _E,2 z2 | x8 | x8 |[M:9/8][K:treble] x4[K:bass] x5 |[M:4/4] x8 |[M:3/4] x6 |] %19

